Gurmukhi/0A4C.svg

<svg enable-background="new 0 0 336 592" viewBox="0 0 336 592" xmlns="http://www.w3.org/2000/svg"><path d="m106.662003 115.901894c.877952-4.490342.996376-8.885064 4.409217-11.865372 2.853539 1.283203 2.486016 3.660042 3.004906 5.425491 4.984467 16.958908 16.985138 24.130013 34.299774 20.755867 12.109864-2.359886 23.673767-6.651558 35.634125-9.499962 9.765274-2.325653 19.584534-3.692459 29.578735-1.380973 25.608155 5.922744 33.483048 31.210479 24.760804 53.188003-.306534.772354-.696717 1.51149-1.04805 2.266068-4.681809 10.054901-9.59993 12.093643-20.717469 8.507034-.303268-2.703323 1.645234-4.585861 2.690506-6.754273 1.819367-3.774276 3.261475-7.664962 4.09169-11.747711 2.240921-11.020065-3.578399-20.749969-14.018981-23.633789-12.001511-3.314987-23.080185 1.427506-26.401841 11.568543-2.828155 8.634353-.450958 16.702667 3.330704 24.527343.916016 1.89531 2.61293 3.482514 2.500427 5.809998-8.938705 3.69722-15.425293 1.567719-19.981613-6.507355-4.771713-8.456833-5.747986-15.676162-3.579269-27.249969-2.442139-.380692-4.504166.911819-6.631851 1.501526-9.268418 2.568786-18.619019 3.753341-28.084229 1.47554-16.161743-3.889328-25.503311-18.096329-23.837585-36.386009z"/><path d="m238.068146 278.557312c-5.685257-1.353271-8.582321-4.933166-7.887314-9.302155.729782-4.587432 4.568191-7.79074 9.009766-7.519073 4.21083.257568 7.857559 3.920746 8.017288 8.053467.181854 4.705322-3.029358 7.923889-9.13974 8.767761z"/><path d="m113.488388 261.947021c6.197891-.132568 9.94632 2.478333 10.624771 7.022492.576615 3.86206-2.107971 8.094788-5.888016 9.283569-4.293663 1.350281-8.874511-.856506-10.527847-5.071655-1.739212-4.434082.166237-8.363953 5.791092-11.234406z"/><path d="m185.313965 227.211517c-.347717 6.644104-3.850189 10.274475-9.060196 9.831589-4.671265-.397095-8.320084-5.242081-7.430115-10.011536.812348-4.35353 3.730408-6.797546 7.940109-6.966491 4.444703-.17836 7.573945 2.090454 8.550202 7.146438z"/><path d="m110.803734 286.89325c5.272682 1.082885 7.935959 3.906982 7.67939 9.077178-.208374 4.199067-2.450142 6.690735-6.472328 7.673249-4.151467 1.014007-7.063981-.847901-9.222413-4.15329-3.141738-4.811218.564469-12.857605 8.015351-12.597137z"/><path d="m235.689972 295.874115c.734314-5.934113 3.793793-9.057922 8.418869-9.020966 4.350281.034729 7.950317 3.441559 8.209839 7.769226.295273 4.923249-2.463852 8.414032-7.222336 9.137574-4.514694.686462-7.900635-2.00528-9.406372-7.885834z"/><path d="m227.307922 350.855743c-7.717697.761689-12.766342-4.040954-11.021164-10.059448 1.12558-3.881714 3.617341-6.164429 7.864487-6.280609 4.415436-.12088 7.410477 1.975739 8.53949 6.070343 1.272842 4.61618-.870102 7.961639-5.382813 10.269714z"/><path d="m115.164276 329.165466c-4.596367-.809723-7.371918-3.251983-7.964355-7.470672-.462273-3.291748.777877-6.198487 3.72718-8.094269 2.884689-1.854187 5.933792-2.159821 8.885613-.321838 3.019401 1.880065 4.821182 4.700836 4.248588 8.329162-.739555 4.686249-3.790626 7.149994-8.897026 7.557617z"/><path d="m132.321304 350.863892c-4.423584 1.043151-7.638641-.145722-9.839592-3.691895-1.855842-2.990143-1.616569-6.116577.133019-8.976715 1.951416-3.190094 5.106369-4.059876 8.689667-3.592285 3.85028.502411 5.996627 3.116089 6.699646 6.517792.916 4.43222-1.079514 7.753692-5.68274 9.743103z"/><path d="m228.089417 255.604355c-7.864716 1.511612-13.306199-2.740219-11.873078-8.904724.899094-3.867325 3.085358-6.647843 7.366837-6.985001 4.30719-.339172 7.534942 1.416626 8.936844 5.585678 1.476318 4.390305-.213196 7.746124-4.430603 10.304047z"/><path d="m206.788391 349.737549c3.809998 2.812469 4.952713 6.221649 3.349045 10.239288-1.415161 3.54538-4.182068 5.341187-8.10994 5.357392-3.848953.015869-6.126693-2.129273-7.616302-5.322846-1.508026-3.233063-.5793-6.255218 1.607406-8.734558 2.898789-3.286743 6.582734-3.31308 10.769791-1.539276z"/><path d="m209.064972 238.965439c-3.573227 3.758667-7.423645 4.593246-11.454636 1.867691-3.117553-2.107956-4.624603-5.204453-3.486938-9.113098 1.490509-5.120972 6.474472-7.52771 11.520935-5.581009 4.827682 1.862274 6.179443 6.485473 3.420639 12.826416z"/><path d="m230.898956 317.187592c2.571137-4.459382 6.109879-6.00293 10.627915-4.454957 3.650894 1.250855 5.688583 4.184998 5.592621 7.947175-.107285 4.205444-2.550629 7.062744-6.700242 8.181823-6.306167 1.700592-11.215332-4.073333-9.520294-11.674041z"/><path d="m173.280182 369.949646c-4.757996-4.21936-5.835861-8.02832-3.401535-11.927368 2.150833-3.445007 5.331528-4.985413 9.384506-3.897125 4.735764 1.271576 7.102326 5.616333 5.913208 10.539856-1.12587 4.661743-5.71286 6.832031-11.896179 5.284637z"/><path d="m129.096924 239.683655c5.311951.020126 8.328613 2.657623 9.004822 7.275635.615036 4.200225-1.464859 7.522522-5.571839 8.909301-4.022369 1.358216-7.532394.276306-9.941711-3.441818-3.268952-5.044723-.498963-10.807877 6.508728-12.743118z"/><path d="m155.13681 241.663132c-4.504623 1.404892-7.953155.44458-10.296096-3.282349-1.822419-2.898941-1.754593-6.019134-.086976-8.957947 1.877747-3.309143 5.023072-4.142944 8.555649-3.702636 3.728836.464752 6.088776 2.833526 6.820358 6.311813.868393 4.128754-.611373 7.50853-4.992935 9.631119z"/><path d="m157.361145 350.445923c4.121918 5.364319 3.641983 10.671234-.90152 13.617096-3.936828 2.55249-9.35202 1.394256-11.697922-2.753235-1.972824-3.487885-1.849243-7.17514.964081-10.128601 3.325074-3.490692 7.311615-3.347931 11.635361-.73526z"/></svg>

<svg version="1.1" id="Layer_1" xmlns="http://www.w3.org/2000/svg" xmlns:xlink="http://www.w3.org/1999/xlink" x="0px" y="0px"
	 width="100%" viewBox="0 0 336 592" enable-background="new 0 0 336 592" xml:space="preserve">
<path fill="#000000" opacity="1.000000" stroke="none" 
	d="
M106.662003,115.901894 
	C107.539955,111.411552 107.658379,107.016830 111.071220,104.036522 
	C113.924759,105.319725 113.557236,107.696564 114.076126,109.462013 
	C119.060593,126.420921 131.061264,133.592026 148.375900,130.217880 
	C160.485764,127.857994 172.049667,123.566322 184.010025,120.717918 
	C193.775299,118.392265 203.594559,117.025459 213.588760,119.336945 
	C239.196915,125.259689 247.071808,150.547424 238.349564,172.524948 
	C238.043030,173.297302 237.652847,174.036438 237.301514,174.791016 
	C232.619705,184.845917 227.701584,186.884659 216.584045,183.298050 
	C216.280777,180.594727 218.229279,178.712189 219.274551,176.543777 
	C221.093918,172.769501 222.536026,168.878815 223.366241,164.796066 
	C225.607162,153.776001 219.787842,144.046097 209.347260,141.162277 
	C197.345749,137.847290 186.267075,142.589783 182.945419,152.730820 
	C180.117264,161.365173 182.494461,169.433487 186.276123,177.258163 
	C187.192139,179.153473 188.889053,180.740677 188.776550,183.068161 
	C179.837845,186.765381 173.351257,184.635880 168.794937,176.560806 
	C164.023224,168.103973 163.046951,160.884644 165.215668,149.310837 
	C162.773529,148.930145 160.711502,150.222656 158.583817,150.812363 
	C149.315399,153.381149 139.964798,154.565704 130.499588,152.287903 
	C114.337845,148.398575 104.996277,134.191574 106.662003,115.901894 
z"/>
<path fill="#000000" opacity="1.000000" stroke="none" 
	d="
M238.068146,278.557312 
	C232.382889,277.204041 229.485825,273.624146 230.180832,269.255157 
	C230.910614,264.667725 234.749023,261.464417 239.190598,261.736084 
	C243.401428,261.993652 247.048157,265.656830 247.207886,269.789551 
	C247.389740,274.494873 244.178528,277.713440 238.068146,278.557312 
z"/>
<path fill="#000000" opacity="1.000000" stroke="none" 
	d="
M113.488388,261.947021 
	C119.686279,261.814453 123.434708,264.425354 124.113159,268.969513 
	C124.689774,272.831573 122.005188,277.064301 118.225143,278.253082 
	C113.931480,279.603363 109.350632,277.396576 107.697296,273.181427 
	C105.958084,268.747345 107.863533,264.817474 113.488388,261.947021 
z"/>
<path fill="#000000" opacity="1.000000" stroke="none" 
	d="
M185.313965,227.211517 
	C184.966248,233.855621 181.463776,237.485992 176.253769,237.043106 
	C171.582504,236.646011 167.933685,231.801025 168.823654,227.031570 
	C169.636002,222.678040 172.554062,220.234024 176.763763,220.065079 
	C181.208466,219.886719 184.337708,222.155533 185.313965,227.211517 
z"/>
<path fill="#000000" opacity="1.000000" stroke="none" 
	d="
M110.803734,286.893250 
	C116.076416,287.976135 118.739693,290.800232 118.483124,295.970428 
	C118.274750,300.169495 116.032982,302.661163 112.010796,303.643677 
	C107.859329,304.657684 104.946815,302.795776 102.788383,299.490387 
	C99.646645,294.679169 103.352852,286.632782 110.803734,286.893250 
z"/>
<path fill="#000000" opacity="1.000000" stroke="none" 
	d="
M235.689972,295.874115 
	C236.424286,289.940002 239.483765,286.816193 244.108841,286.853149 
	C248.459122,286.887878 252.059158,290.294708 252.318680,294.622375 
	C252.613953,299.545624 249.854828,303.036407 245.096344,303.759949 
	C240.581650,304.446411 237.195709,301.754669 235.689972,295.874115 
z"/>
<path fill="#000000" opacity="1.000000" stroke="none" 
	d="
M227.307922,350.855743 
	C219.590225,351.617432 214.541580,346.814789 216.286758,340.796295 
	C217.412338,336.914581 219.904099,334.631866 224.151245,334.515686 
	C228.566681,334.394806 231.561722,336.491425 232.690735,340.586029 
	C233.963577,345.202209 231.820633,348.547668 227.307922,350.855743 
z"/>
<path fill="#000000" opacity="1.000000" stroke="none" 
	d="
M115.164276,329.165466 
	C110.567909,328.355743 107.792358,325.913483 107.199921,321.694794 
	C106.737648,318.403046 107.977798,315.496307 110.927101,313.600525 
	C113.811790,311.746338 116.860893,311.440704 119.812714,313.278687 
	C122.832115,315.158752 124.633896,317.979523 124.061302,321.607849 
	C123.321747,326.294098 120.270676,328.757843 115.164276,329.165466 
z"/>
<path fill="#000000" opacity="1.000000" stroke="none" 
	d="
M132.321304,350.863892 
	C127.897720,351.907043 124.682663,350.718170 122.481712,347.171997 
	C120.625870,344.181854 120.865143,341.055420 122.614731,338.195282 
	C124.566147,335.005188 127.721100,334.135406 131.304398,334.602997 
	C135.154678,335.105408 137.301025,337.719086 138.004044,341.120789 
	C138.920044,345.553009 136.924530,348.874481 132.321304,350.863892 
z"/>
<path fill="#000000" opacity="1.000000" stroke="none" 
	d="
M228.089417,255.604355 
	C220.224701,257.115967 214.783218,252.864136 216.216339,246.699631 
	C217.115433,242.832306 219.301697,240.051788 223.583176,239.714630 
	C227.890366,239.375458 231.118118,241.131256 232.520020,245.300308 
	C233.996338,249.690613 232.306824,253.046432 228.089417,255.604355 
z"/>
<path fill="#000000" opacity="1.000000" stroke="none" 
	d="
M206.788391,349.737549 
	C210.598389,352.550018 211.741104,355.959198 210.137436,359.976837 
	C208.722275,363.522217 205.955368,365.318024 202.027496,365.334229 
	C198.178543,365.350098 195.900803,363.204956 194.411194,360.011383 
	C192.903168,356.778320 193.831894,353.756165 196.018600,351.276825 
	C198.917389,347.990082 202.601334,347.963745 206.788391,349.737549 
z"/>
<path fill="#000000" opacity="1.000000" stroke="none" 
	d="
M209.064972,238.965439 
	C205.491745,242.724106 201.641327,243.558685 197.610336,240.833130 
	C194.492783,238.725174 192.985733,235.628677 194.123398,231.720032 
	C195.613907,226.599060 200.597870,224.192322 205.644333,226.139023 
	C210.472015,228.001297 211.823776,232.624496 209.064972,238.965439 
z"/>
<path fill="#000000" opacity="1.000000" stroke="none" 
	d="
M230.898956,317.187592 
	C233.470093,312.728210 237.008835,311.184662 241.526871,312.732635 
	C245.177765,313.983490 247.215454,316.917633 247.119492,320.679810 
	C247.012207,324.885254 244.568863,327.742554 240.419250,328.861633 
	C234.113083,330.562225 229.203918,324.788300 230.898956,317.187592 
z"/>
<path fill="#000000" opacity="1.000000" stroke="none" 
	d="
M173.280182,369.949646 
	C168.522186,365.730286 167.444321,361.921326 169.878647,358.022278 
	C172.029480,354.577271 175.210175,353.036865 179.263153,354.125153 
	C183.998917,355.396729 186.365479,359.741486 185.176361,364.665009 
	C184.050491,369.326752 179.463501,371.497040 173.280182,369.949646 
z"/>
<path fill="#000000" opacity="1.000000" stroke="none" 
	d="
M129.096924,239.683655 
	C134.408875,239.703781 137.425537,242.341278 138.101746,246.959290 
	C138.716782,251.159515 136.636887,254.481812 132.529907,255.868591 
	C128.507538,257.226807 124.997513,256.144897 122.588196,252.426773 
	C119.319244,247.382050 122.089233,241.618896 129.096924,239.683655 
z"/>
<path fill="#000000" opacity="1.000000" stroke="none" 
	d="
M155.136810,241.663132 
	C150.632187,243.068024 147.183655,242.107712 144.840714,238.380783 
	C143.018295,235.481842 143.086121,232.361649 144.753738,229.422836 
	C146.631485,226.113693 149.776810,225.279892 153.309387,225.720200 
	C157.038223,226.184952 159.398163,228.553726 160.129745,232.032013 
	C160.998138,236.160767 159.518372,239.540543 155.136810,241.663132 
z"/>
<path fill="#000000" opacity="1.000000" stroke="none" 
	d="
M157.361145,350.445923 
	C161.483063,355.810242 161.003128,361.117157 156.459625,364.063019 
	C152.522797,366.615509 147.107605,365.457275 144.761703,361.309784 
	C142.788879,357.821899 142.912460,354.134644 145.725784,351.181183 
	C149.050858,347.690491 153.037399,347.833252 157.361145,350.445923 
z"/>
</svg>
